X:74
T:Breeks are Loose and the Button's Awa', The
R:Jig
B:The Athole Collection
M:12/8
L:1/8
K:G Minor
A|~B2B Bcd BGG G2A|~B2 B AcB AFF F2A|~B2 c dcB B2g f2e|
CdB Bcd BGG G2:|
|:A|BcB fdB fdB fdB|cdc g=ec gec gec|BcB fdf bag fdB|cBc Bcd BGG G2:|

